resources/svg/opera-line.svg

<svg fill="currentColor" viewBox="0 0 24 24" xmlns="http://www.w3.org/2000/svg"><path d="M14.7665 19.5091C17.8219 18.3834 20.001 15.4462 20.001 12C20.001 8.55381 17.8219 5.61656 14.7665 4.4909C16.7122 5.97596 18.001 8.93354 18.001 12C18.001 15.0665 16.7122 18.024 14.7665 19.5091ZM9.23543 4.4909C6.18001 5.61656 4.00098 8.55381 4.00098 12C4.00098 15.4462 6.18001 18.3834 9.23543 19.5091C7.28979 18.024 6.00098 15.0665 6.00098 12C6.00098 8.93354 7.28979 5.97596 9.23543 4.4909ZM12.001 22C6.47813 22 2.00098 17.5228 2.00098 12C2.00098 6.47715 6.47813 2 12.001 2C17.5238 2 22.001 6.47715 22.001 12C22.001 17.5228 17.5238 22 12.001 22ZM12.001 18.5C14.001 18.5 16.001 15.4667 16.001 12C16.001 8.53333 14.001 5.5 12.001 5.5C10.001 5.5 8.00098 8.53333 8.00098 12C8.00098 15.4667 10.001 18.5 12.001 18.5Z"/></svg>

<svg xmlns="http://www.w3.org/2000/svg" viewBox="0 0 24 24" fill="currentColor">
    <g>
        <path fill="none" d="M0 0h24v24H0z"/>
        <path fill-rule="nonzero" d="M14.766 19.51a8.003 8.003 0 0 0 0-15.02C16.71 5.977 18 8.935 18 12s-1.289 6.024-3.234 7.51zM9.234 4.49a8.003 8.003 0 0 0 0 15.02C7.29 18.023 6 15.065 6 12s1.289-6.024 3.234-7.51zM12 22C6.477 22 2 17.523 2 12S6.477 2 12 2s10 4.477 10 10-4.477 10-10 10zm0-3.5c2 0 4-3.033 4-6.5s-2-6.5-4-6.5S8 8.533 8 12s2 6.5 4 6.5z"/>
    </g>
</svg>
